X: 45
T: Troika
L: 1/8
M: 4/8
K: Am
"Am" z/ed/ "E"cB|"Am" A^G AE| z/ed/ "E7"cB|"Am" A^G AA|
"G" G/gf/ "C" fe|"E" G/ed/ "Am"dc|"Dm" c/B/c/d/ "Am" eE|"E7" cB "Am" A2||
"Am"cc cA| "E" BB B^G|"Am" AA A/c/B/A/| "E" ^GG E2|
"Am" cc c/B/c|"Dm" dd dc/B/| "Am" ce "E"Be| "Dm" AA "Am" A2|]

